src/sources/forus-platform/resources/_platform-common/assets/img/menu/icon-productvoucher.svg

<svg xmlns="http://www.w3.org/2000/svg" width="20" height="20" fill="none" viewBox="0 0 20 20"><path fill="#8CA3A6" d="M8.4154 7.88373C8.10947 8.34067 7.59 8.62792 7.02325 8.62792C6.4565 8.62792 5.93703 8.34067 5.63109 7.88373H4.97672V9.00001H6.093V11.2326H7.95347V9.00001H9.06975V7.88373H8.4154V7.88373Z"/><path fill="#8CA3A6" d="M2 3.7907V15.3256H18V3.7907H2ZM10.186 10.1163H9.06975V12.3488H4.97675V10.1163H3.86047V6.76744H6.36541L6.49694 7.13954C6.57562 7.3621 6.78713 7.51163 7.02325 7.51163C7.25938 7.51163 7.47084 7.3621 7.54956 7.13954L7.68109 6.76744H10.186V10.1163ZM13.7209 12.3488H11.4884V11.2325H13.7209V12.3488ZM15.2093 10.1163H11.4884V8.99998H15.2093V10.1163ZM15.2093 7.88373H11.4884V6.76744H15.2093V7.88373Z"/></svg>

<?xml version="1.0" encoding="utf-8"?>
<!DOCTYPE svg PUBLIC "-//W3C//DTD SVG 1.1//EN" "http://www.w3.org/Graphics/SVG/1.1/DTD/svg11.dtd">
<svg version="1.1" id="Layer_1" xmlns="http://www.w3.org/2000/svg" xmlns:xlink="http://www.w3.org/1999/xlink" x="0px" y="0px"
	 width="30px" height="30px" viewBox="-5 -5 30 30" enable-background="new -5 -5 30 30" xml:space="preserve">
<path fill="#8CA3A6" d="M8.416,7.884C8.109,8.341,7.59,8.628,7.023,8.628c-0.567,0-1.086-0.287-1.393-0.744H4.977V9h1.116v2.232
	h1.861V9H9.07V7.884H8.416L8.416,7.884z"/>
<path fill="#8CA3A6" d="M2,3.791v11.536h16V3.791H2z M10.186,10.116H9.07v2.232H4.977v-2.232H3.86V6.768h2.505L6.497,7.14
	c0.079,0.223,0.29,0.372,0.526,0.372c0.236,0,0.447-0.149,0.526-0.372l0.132-0.372h2.505V10.116z M13.721,12.349h-2.232v-1.116
	h2.232V12.349z M15.209,10.116h-3.721V9h3.721V10.116z M15.209,7.884h-3.721V6.768h3.721V7.884z"/>
</svg>
